X: 160
U:~=!turn!
M:C
L:1/8
K:D
f | a>ba<f d'>c'ba | g>fe>d c/d/e/d/ c<A | a>ba<f d'>c'ba | d'/c'/b/a/ b<c' d'2 d((3a/b/c'/) |
(d'>d)(c'>d) (b>d)(a>f) | (g>f)(e>d) c/d/e/d/ c<A | F<D(A>F) (G>F)E>e | d/c/B/A/ B<c d2 d |]


